X:1
T:Buxtehude - Trio Sonata No.1 in F. {Professional production full score.}
%%score [ 1 2 3 ] { ( 4 6 7 ) | ( 5 8 ) }
L:1/8
Q:1/4=110
M:6/8
K:Bb
V:1 treble nm="Violino."
V:2 alto nm="Viola da gamba."
V:3 bass nm="Cembalo."
V:4 treble nm="Harpsichord"
V:6 treble 
V:7 treble 
V:5 bass 
V:8 bass 
V:1
"^Allegro.""^S o n a t a  I."!f! B z z B z z | B z z z B/A/B | Fd/c/d Bf/e/f | %3
 d z z f"^D. B. H." z z | g z z z d/e/f | gMf>e dd/e/f | cc/d/e BB/c/d | cc/d/e dd/c/d/e/ | %8
 c/f/A/c/F/f/ d z z | z2 z z d/c/d/f/ | c/f/A/c/F/f/ d/f/g/a/b/c'/ | a z z z/ d/e/f/g/_a/ | %12
 f z z z/ B/c/d/e/f/ | dBc z/ d/c/d/B/c/ | A/a/g/a/f/g/ =ec/e/f | fg/f/=e fMf>e | f z z f z z | %17
 f z z z F/=E/F | CA/G/A Fc/B/c | A z z c z z | d z z z A/B/c | dMc>B AA/B/c | GG/A/B FF/G/A | %23
 AG/A/MB AA/G/A/c/ | F/B/D/F/B,/B/ A z z | z2 z z A/G/A/c/ | F/B/D/F/B,/B/ G/B/c/d/e/f/ | %27
 d z z z/ G/_A/B/c/_d/ | B z z z/ E/F/G/_A/B/ | GEF z/ G/F/G/E/F/ | D/d/c/d/B/c/ AF/A/B | %31
 Bc/B/A B PB>A |!f! B z z B z z | B z z z B/A/B | Fd/c/d Bf/e/f | d z z f z z | g z z z d/e/f | %37
 gMf>e dd/e/f | cc/d/e BB/c/d | cc/d/e d2 z |!mp![Q:1/4=100] BB/c/d dc/d/[Q:1/4=50]e | %41
 !fermata!d3[Q:1/4=40] z2 z ||[M:4/4]"^Adagio." z8 | z8 | z2 d2 G2 (ed) | g6 f2 | (efed) e4- | %47
 efdc d4- | d2 c4 dc | B4- BAcB | A4 z2 c>_e | _d2 _A>G G3 F ||[M:4/4] z8 | z8 | z8 | z8 | z8 | %57
 z8 | z8 | z8 | z8 | z8 | z8 | z8 | z8 | z8 | z8 | z8 | z8 | z8 | z8 | z8 | z8 | z8 | z8 | z8 | %76
 z8 | z8 | z8 | z8 | z8 | z8 | z8 | z8 | z8 | z8 | z8 | z8 | z8 | z8 | z8 | z8 | z8 | z8 | z8 | %95
 z8 | z8 | z8 | z8 | z8 | z8 | z8 | z8 | z8 | z8 | z8 | z8 | z8 | z8 | z8 | z8 | z8 | z8 | z8 | %114
 z8 | z8 | z8 | z8 | z8 | z8 | z8 | z8 | z8 | z8 | z8 | z8 | z8 | z8 | z8 | z8 | z8 | z8 | z8 | %133
 z8 | z8 | z8 | z8 | z8 | z8 | z8 | z8 | z8 | z8 | z8 | z8 | z8 | z8 | z8 | z8 | z8 | z8 | z8 | %152
 z8 | z8 | z8 | z8 | z8 | z8 | z8 | z8 | z8 | z8 | z8 | z8 | z8 | z8 | z8 | z8 | z8 | z8 | z8 | %171
 z8 | z8 | z8 | z8 | z8 | z8 | z8 | z8 | z8 | z8 | z8 | z8 | z8 | z8 | z8 | z8 | z8 | z8 | z8 | %190
 z8 | z8 |] %192
V:2
!f! D z z F z z | G z z D z z | z B,/A,/B, F,D/C/D | B, z z B z z | B z z z B,/C/D | %5
 EMD>C B,B,/C/D | A,A,/B,/C G,G,/A,/B, | B,MB,>A, B,3 | z2 z z D/C/D/F/ | %9
 C/F/A,/C/F,/F/ DC/B,/C/D/ | F z A, B,A,G, | F,F/E/D/C/ B,/A,/G,/F,/E,/F,/ | %12
 D,[K:bass] D/C/B,/A,/ G,/F,/E,/D,/C,/D,/ | B,,[K:alto] G/F/E/F/ D2 =E | F/C/B,/C/A,/B,/ G,>G,C | %15
 DB,/A,/G,/B,/ A,/B,<PG,B,/ | A, z z C z z | D z z A, z2 | z F/=E/F CA/G/A | F z z F z z | %20
 F z z z F/G/A | BMA>G FF/G/A | =EE/F/G DD/E/F | FE/F/MG F3 | z2 z[K:bass] z A,/G,/A,/C/ | %25
 F,/B,/D,/F,/B,,/B,/ A,F,/=E,/F,/A,/ | B, z D, E,D,C, | B,,[K:alto] B/_A/G/F/ E/D/C/B,/_A,/B,/ | %28
 G,G/F/E/D/ C/B,/_A,/G,/F,/G,/ | E,C/B,/_A,/B,/ G,2 =A, | B,/F/E/F/D/E/ C>CPF | GE/D/C/E/ D/E<CE/ | %32
!f! D z z F z z | G z z D z z | z B,/A,/B, F,D/C/D | B, z z B z z | B z z z B,/C/D | %37
 EMD>C B,B,/C/D | A,A,/B,/C G,G,/A,/B, | B,MB,>A, B,2 z |!mp!"^Piano" G,G,/A,/B, B,MB,>A, | %41
 !fermata!B,3 z2 z ||[M:4/4] z2 A,2 D,2 B,A, | D6 C2 | (B,CB,A,) B,4 | z2 C2 D4- | D2 G,2 C4- | %47
 C2 B,A, B,4- | B,2 A,G, A,2 B,A, | G,3 F, G,2 G2- | G2 F=E F4- | F2 F2 F2 =E2 ||[M:4/4] z8 | z8 | %54
 z8 | z8 | z8 | z8 | z8 | z8 | z8 | z8 | z8 | z8 | z8 | z8 | z8 | z8 | z8 | z8 | z8 | z8 | z8 | %73
 z8 | z8 | z8 | z8 | z8 | z8 | z8 | z8 | z8 | z8 | z8 | z8 | z8 | z8 | z8 | z8 | z8 | z8 | z8 | %92
 z8 | z8 | z8 | z8 | z8 | z8 | z8 | z8 | z8 | z8 | z8 | z8 | z8 | z8 | z8 | z8 | z8 | z8 | z8 | %111
 z8 | z8 | z8 | z8 | z8 | z8 | z8 | z8 | z8 | z8 | z8 | z8 | z8 | z8 | z8 | z8 | z8 | z8 | z8 | %130
 z8 | z8 | z8 | z8 | z8 | z8 | z8 | z8 | z8 | z8 | z8 | z8 | z8 | z8 | z8 | z8 | z8 | z8 | z8 | %149
 z8 | z8 | z8 | z8 | z8 | z8 | z8 | z8 | z8 | z8 | z8 | z8 | z8 | z8 | z8 | z8 | z8 | z8 | z8 | %168
 z8 | z8 | z8 | z8 | z8 | z8 | z8 | z8 | z8 | z8 | z8 | z8 | z8 | z8 | z8 | z8 | z8 | z8 | z8 | %187
 z8 | z8 | z8 | z8 | z8 |] %192
V:3
!f! B,,/B,/A,/G,/F,/E,/"^6" D,/C,/B,,/C,/D,/B,,/ | E,/D,/E,/F,/G,/E,/ B,3 | z B,,B,, B,,B,,B,, | %3
!f! B,,/B,/A,/G,/F,/E,/"^6" D,/C,/B,,/C,/D,/B,,/ | E,/D,/E,/F,/"^6"G,/E,/ B, z B, | %5
 E,"^6"F,"^5"F, G,G,"^6"D, | F,F,C, E,E,"^6"D, |"^6\n5" E,"_4"F,"^7\n3"F,, B,,B,B, | %8
"^6" A,F,A, B,B,,B,, |"^6" A,,F,,A,, B,,B,B, |"^6" A,F,A, B,A,"^6#"G, | F,D,"^6"F, G,F,"^6"E, | %12
 D,B,,"^6"D, E,"^6"D,"^(6)"C, | B,,G,,A,, B,,A,,"^6#"G,, | F,, z F,,"^h" C,>B,,"^6"A,, | %15
 B,,G,,"^h"C, F,,"^4       h" C,2 | F,,/F,/=E,/D,/"^h"C,/B,,/"^6" A,,/G,,/F,,/G,,/A,,/F,,/ | %17
 B,,/A,,/B,,/C,/"^6"D,/B,,/ F,3 | z F,,F,, F,,F,,F,, | %19
 F,,/F,/=E,/D,/"^h"C,/B,,/"^6" A,,/G,,/F,,/G,,/A,,/F,,/ | B,,/A,,/B,,/C,/"^6"D,/B,,/ F, z F, | %21
 B,,"^6"C,"^5\n(h)"C, D,D,"^6"A,, |"^(h)" C,C,G,, B,,B,"^6"A, |"^7\n5" B,"^h"C"^7"C, F,F,,F, | %24
"^6" D,B,,D, F,F,,F, |"^6" D,B,,D, F,F,,F, |"^6" D,B,,D, E,D,"^6"C, | B,,G,,"^6"B, CB,"^6"_A, | %28
 G,E,"^6"G, _A,G,"^6\nb"F, | E,"^6b"C,D, E,D,"^6"C, | B,, z B,, F,>E,"^6"D, | %31
 E,C,"^7"F, B,,"^4    3" F,2 |!f! B,,/B,/A,/G,/F,/E,/"^6" D,/C,/B,,/C,/D,/B,,/ | %33
 E,/D,/E,/F,/"^6"G,/E,/ B,3 | z B,,B,, B,,B,,B,, | %35
!f! B,,/B,/A,/G,/F,/E,/"^6" D,/C,/B,,/C,/D,/B,,/ | E,/D,/E,/F,/"^6"G,/E,/ B, z B, | %37
 E,"^6"F,"^5"F, G,G,"^6"D, | F,F,"^6b"C, E,E,"^6"D, |"^7\n5" E,"^5\n4" F,2 B,,2 z"^3" | %40
!mp! E,2"^6" D,"^7\n5" E,"^5       7\n4       3" F,2 | !fermata!B,,3 z2 z || %42
[M:4/4]"^#" D,4"^5       6    5\n        4     #" D,4 | z2"^6" B,,2"^6        5" ^F,,4 | %44
 G,,4"^5       6     5" G,,4 | z2"^6" E,2"^6        5" =B,,4 |"^9                    8" C,6 C,2 | %47
"^9                 8\n7                 6" D,6 D,2 | %48
"^7       6\n5       4   3" =E,4"^5       6   5\n3       4   3" F,4- |"^4\n2" F,2 =E,D,"^5b" E,4 | %50
"^9" F,2 D,2"^6" A,,4 |"^b" B,,2"^7b\n5" =B,,2"^5       h\n4" C,4 ||[M:4/4] z8 | z8 | z8 | z8 | %56
 z8 | z8 | z8 | z8 | z8 | z8 | z8 | z8 | z8 | z8 | z8 | z8 | z8 | z8 | z8 | z8 | z8 | z8 | z8 | %75
 z8 | z8 | z8 | z8 | z8 | z8 | z8 | z8 | z8 | z8 | z8 | z8 | z8 | z8 | z8 | z8 | z8 | z8 | z8 | %94
 z8 | z8 | z8 | z8 | z8 | z8 | z8 | z8 | z8 | z8 | z8 | z8 | z8 | z8 | z8 | z8 | z8 | z8 | z8 | %113
 z8 | z8 | z8 | z8 | z8 | z8 | z8 | z8 | z8 | z8 | z8 | z8 | z8 | z8 | z8 | z8 | z8 | z8 | z8 | %132
 z8 | z8 | z8 | z8 | z8 | z8 | z8 | z8 | z8 | z8 | z8 | z8 | z8 | z8 | z8 | z8 | z8 | z8 | z8 | %151
 z8 | z8 | z8 | z8 | z8 | z8 | z8 | z8 | z8 | z8 | z8 | z8 | z8 | z8 | z8 | z8 | z8 | z8 | z8 | %170
 z8 | z8 | z8 | z8 | z8 | z8 | z8 | z8 | z8 | z8 | z8 | z8 | z8 | z8 | z8 | z8 | z8 | z8 | z8 | %189
 z8 | z8 | z8 |] %192
V:4
"^Allegro."!f! [DFB]3 [FB]3 | [EGB]3 [DFB]3 | z [DFB][DFB] [DFB][DFB][DFB] | [DFB]3 [FB]3 | %4
 [EGB]3 [DFB] z [DF] | [B,EG][A,DF][A,F] [B,D]2 [B,F] | [A,C][A,C][G,CE] [G,B,E][B,EG][FB-] | %7
 c3 [DFB]3 | F2 F [DF]B/A/B | F2 F F3 | F2 F F2 [=EB] | [FA]A [DAd] [DGB]2 [EGc] | B3- B2 A | %13
 B2 c F2 [=EB] | [FA] z [CFA] [C=EG]2 [CF] | [DF][B,DG][G,C=E] F2 E | [A,CF]2 [CEG] c2 B/A/ | %17
 B2 c/B/ [CFA]3 | z [CFA][CFA] [CFA][CFA][CFA] | [CF]2 [=EG] c2 B/A/ | B2 c/B/ [CFA] z [CFA] | %21
 [DFB][FA][=EG] F[FA] [CFc] | [C=EG]2 [DGB] [DF]F/G/[FA]- | [FA]G[GB] [FA]3 | B3 [FA]3 | B3 [FA]3 | %26
 B3 B2 A | [DB]2 [DG] [EG]2 [CF] | EB/A/B [E_Ac]2 [FAd] | [Be]ef [EGB]2 [E=A] | %30
 [DFB] z [DFB] [CFA]2 [B,FB] | [EG]2 [EA] [DFB] [FB]A | [DFB]3 [FB]3 | B2 B/c/ [DFB]3 | %34
 z [DFB][DFB] !/![DFB]3 | [DFB]3 [FB]3 | B2 B/c/ [DFB] z [DF] | [EGB][DFB][CFA] [B,DB]2 [B,FB] | %38
 [CFA]2 [CE_A] [B,EG]2 [DFB] | [DGB] BA [DFB]2 z |!mp! [G,B,]2 [B,D]- [B,D] C2 | %41
 !fermata!D3 z2 z ||[M:4/4]"^Adagio." [D^F]4- [DF]2 GF | z2 G2 A4 | G4 B4 | z2 [CG-]2 G2 F2 | %46
 E4- E4 | [CE]4 D4- | D2 C2 C2 DC | x8 | x4 C4 | _D2 F2- F2 =E2 ||[M:4/4] z8 | z8 | z8 | z8 | z8 | %57
 z8 | z8 | z8 | z8 | z8 | z8 | z8 | z8 | z8 | z8 | z8 | z8 | z8 | z8 | z8 | z8 | z8 | z8 | z8 | %76
 z8 | z8 | z8 | z8 | z8 | z8 | z8 | z8 | z8 | z8 | z8 | z8 | z8 | z8 | z8 | z8 | z8 | z8 | z8 | %95
 z8 | z8 | z8 | z8 | z8 | z8 | z8 | z8 | z8 | z8 | z8 | z8 | z8 | z8 | z8 | z8 | z8 | z8 | z8 | %114
 z8 | z8 | z8 | z8 | z8 | z8 | z8 | z8 | z8 | z8 | z8 | z8 | z8 | z8 | z8 | z8 | z8 | z8 | z8 | %133
 z8 | z8 | z8 | z8 | z8 | z8 | z8 | z8 | z8 | z8 | z8 | z8 | z8 | z8 | z8 | z8 | z8 | z8 | z8 | %152
 z8 | z8 | z8 | z8 | z8 | z8 | z8 | z8 | z8 | z8 | z8 | z8 | z8 | z8 | z8 | z8 | z8 | z8 | z8 | %171
 z8 | z8 | z8 | z8 | z8 | z8 | z8 | z8 | z8 | z8 | z8 | z8 | z8 | z8 | z8 | z8 | z8 | z8 | z8 | %190
 z8 | z8 |] %192
V:5
!f! B,,/B,/A,/G,/F,/E,/ D,/C,/B,,/C,/D,/B,,/ | E,/D,/E,/F,/G,/E,/ B,3 | z B,,B,, B,,B,,B,, | %3
!f! B,,/B,/A,/G,/F,/E,/ D,/C,/B,,/C,/D,/B,,/ | E,/D,/E,/F,/G,/E,/ B, z B, | E,F,F, G,G,D, | %6
 F,F,C, E,E,D, | E,F,F,, B,,B,B, | A,F,A, B,B,,B,, | A,,F,,A,, B,,B,B, | A,F,A, B,A,G, | %11
 F,D,F, G,F,E, | D,B,,D, E,D,C, | B,,G,,A,, B,,A,,G,, | F,, z F,, C,>B,,A,, | B,,G,,C, F,, C,2 | %16
 F,,/F,/=E,/D,/C,/B,,/ A,,/G,,/F,,/G,,/A,,/F,,/ | B,,/A,,/B,,/C,/D,/B,,/ F,3 | z F,,F,, F,,F,,F,, | %19
 F,,/F,/=E,/D,/C,/B,,/ A,,/G,,/F,,/G,,/A,,/F,,/ | B,,/A,,/B,,/C,/D,/B,,/ F, z F, | %21
 B,,C,C, D,D,A,, | C,C,G,, B,,B,A, | B,CC, F,F,,F, | D,B,,D, F,F,,F, | D,B,,D, F,F,,F, | %26
 D,B,,D, E,D,C, | B,,G,,B, CB,_A, | G,E,G, _A,G,F, | E,C,D, E,D,C, | B,, z B,, F,>E,D, | %31
 E,C,F, B,, F,2 |!f! B,,/B,/A,/G,/F,/E,/ D,/C,/B,,/C,/D,/B,,/ | E,/D,/E,/F,/G,/E,/ B,3 | %34
 z B,,B,, B,,B,,B,, |!f! B,,/B,/A,/G,/F,/E,/ D,/C,/B,,/C,/D,/B,,/ | E,/D,/E,/F,/G,/E,/ B, z B, | %37
 E,F,F, G,G,D, | F,F,C, E,E,D, | E, F,2 B,,2 z |"^Piano" E,2 D, E, F,2 | !fermata!B,,3 z2 z || %42
[M:4/4] D,4 D,4 | z2 B,,2 ^F,,4 | G,,4 G,,4 | z2 E,2 =B,,4 | C,6 C,2 | D,6 D,2 | =E,4 F,4- | %49
 F,2 =E,D, E,4 | F,2 D,2 A,,4 | B,,2 =B,,2 C,4 ||[M:4/4] z8 | z8 | z8 | z8 | z8 | z8 | z8 | z8 | %60
 z8 | z8 | z8 | z8 | z8 | z8 | z8 | z8 | z8 | z8 | z8 | z8 | z8 | z8 | z8 | z8 | z8 | z8 | z8 | %79
 z8 | z8 | z8 | z8 | z8 | z8 | z8 | z8 | z8 | z8 | z8 | z8 | z8 | z8 | z8 | z8 | z8 | z8 | z8 | %98
 z8 | z8 | z8 | z8 | z8 | z8 | z8 | z8 | z8 | z8 | z8 | z8 | z8 | z8 | z8 | z8 | z8 | z8 | z8 | %117
 z8 | z8 | z8 | z8 | z8 | z8 | z8 | z8 | z8 | z8 | z8 | z8 | z8 | z8 | z8 | z8 | z8 | z8 | z8 | %136
 z8 | z8 | z8 | z8 | z8 | z8 | z8 | z8 | z8 | z8 | z8 | z8 | z8 | z8 | z8 | z8 | z8 | z8 | z8 | %155
 z8 | z8 | z8 | z8 | z8 | z8 | z8 | z8 | z8 | z8 | z8 | z8 | z8 | z8 | z8 | z8 | z8 | z8 | z8 | %174
 z8 | z8 | z8 | z8 | z8 | z8 | z8 | z8 | z8 | z8 | z8 | z8 | z8 | z8 | z8 | z8 | z8 | z8 |] %192
V:6
 x6 | x6 | x6 | x3 F/E/D/E/F/D/ | x6 | x6 | x6 | G F2 x3 | C[I:staff +1]A,[I:staff -1]C x3 | %9
 C[I:staff +1]A,[I:staff -1]C D3 | C[I:staff +1]A,[I:staff -1]C DCB, | CF x4 | FDF GFE | DGE D2 x | %14
 x6 | x3 A, G,2 | x3 [CF]3 | [DF]3 x3 | x6 | x3 [CF]3 | [DF]3 x3 | x C2 A,D x | x3 B,DC | %23
 D=EE/D/ C3 | FDF C3 | FDF C3 | FDF GFE | x6 | EGE x3 | G_A[FA] x3 | x6 | B,E- C x C2 | %32
 x3 F/E/D/E/F/D/ | [EG]2 [EG] x3 | x6 | x3 F/E/D/E/F/D/ | [EG]3 x3 | x6 | x6 | x [CF]2 x3 | %40
 x4 B,[I:staff +1]A, | x6 ||[M:4/4] x6[I:staff -1] D2 | x2 D2- D2 C2 | B,4 D2 ED | x4 D4 | D4 C4 | %47
 x8 | x8 | x8 | x8 | x8 ||[M:4/4] x8 | x8 | x8 | x8 | x8 | x8 | x8 | x8 | x8 | x8 | x8 | x8 | x8 | %65
 x8 | x8 | x8 | x8 | x8 | x8 | x8 | x8 | x8 | x8 | x8 | x8 | x8 | x8 | x8 | x8 | x8 | x8 | x8 | %84
 x8 | x8 | x8 | x8 | x8 | x8 | x8 | x8 | x8 | x8 | x8 | x8 | x8 | x8 | x8 | x8 | x8 | x8 | x8 | %103
 x8 | x8 | x8 | x8 | x8 | x8 | x8 | x8 | x8 | x8 | x8 | x8 | x8 | x8 | x8 | x8 | x8 | x8 | x8 | %122
 x8 | x8 | x8 | x8 | x8 | x8 | x8 | x8 | x8 | x8 | x8 | x8 | x8 | x8 | x8 | x8 | x8 | x8 | x8 | %141
 x8 | x8 | x8 | x8 | x8 | x8 | x8 | x8 | x8 | x8 | x8 | x8 | x8 | x8 | x8 | x8 | x8 | x8 | x8 | %160
 x8 | x8 | x8 | x8 | x8 | x8 | x8 | x8 | x8 | x8 | x8 | x8 | x8 | x8 | x8 | x8 | x8 | x8 | x8 | %179
 x8 | x8 | x8 | x8 | x8 | x8 | x8 | x8 | x8 | x8 | x8 | x8 | x8 |] %192
V:7
 x6 | x6 | x6 | x6 | x6 | x6 | x6 | B2 A x3 | x6 | x6 | x6 | x6 | x6 | x6 | x6 | x3 C3 | x6 | x6 | %18
 x6 | x6 | x6 | x6 | x6 | x6 | x6 | x6 | x6 | x6 | B, x5 | x6 | x6 | x6 | x6 | x6 | x6 | x6 | x6 | %37
 x6 | x6 | x6 | x6 | x6 ||[M:4/4] x8 | x8 | x8 | x8 | x8 | x8 | x8 | x8 | x8 | x8 ||[M:4/4] x8 | %53
 x8 | x8 | x8 | x8 | x8 | x8 | x8 | x8 | x8 | x8 | x8 | x8 | x8 | x8 | x8 | x8 | x8 | x8 | x8 | %72
 x8 | x8 | x8 | x8 | x8 | x8 | x8 | x8 | x8 | x8 | x8 | x8 | x8 | x8 | x8 | x8 | x8 | x8 | x8 | %91
 x8 | x8 | x8 | x8 | x8 | x8 | x8 | x8 | x8 | x8 | x8 | x8 | x8 | x8 | x8 | x8 | x8 | x8 | x8 | %110
 x8 | x8 | x8 | x8 | x8 | x8 | x8 | x8 | x8 | x8 | x8 | x8 | x8 | x8 | x8 | x8 | x8 | x8 | x8 | %129
 x8 | x8 | x8 | x8 | x8 | x8 | x8 | x8 | x8 | x8 | x8 | x8 | x8 | x8 | x8 | x8 | x8 | x8 | x8 | %148
 x8 | x8 | x8 | x8 | x8 | x8 | x8 | x8 | x8 | x8 | x8 | x8 | x8 | x8 | x8 | x8 | x8 | x8 | x8 | %167
 x8 | x8 | x8 | x8 | x8 | x8 | x8 | x8 | x8 | x8 | x8 | x8 | x8 | x8 | x8 | x8 | x8 | x8 | x8 | %186
 x8 | x8 | x8 | x8 | x8 | x8 |] %192
V:8
 x6 | x6 | x6 | x6 | x6 | x6 | x6 | x6 | x6 | x6 | x6 | x6 | x6 | x6 | x6 | x6 | x6 | x6 | x6 | %19
 x6 | x6 | x6 | x6 | x6 | x6 | x6 | x6 | x6 | x6 | x6 | x6 | x6 | x6 | x6 | x6 | x6 | x6 | x6 | %38
 x6 | x6 | x6 | B,3 x3 ||[M:4/4] A,4- A,2 B,A, | x8 | x8 | x8 | x8 | x4 B,4- | B,2 A,G, A,2 B,A, | %49
 [G,B,]4- [G,-B,]4 | [G,A,]2 [F,A,]2 F,4 | F,2 _A,2 G,4 ||[M:4/4] x8 | x8 | x8 | x8 | x8 | x8 | %58
 x8 | x8 | x8 | x8 | x8 | x8 | x8 | x8 | x8 | x8 | x8 | x8 | x8 | x8 | x8 | x8 | x8 | x8 | x8 | %77
 x8 | x8 | x8 | x8 | x8 | x8 | x8 | x8 | x8 | x8 | x8 | x8 | x8 | x8 | x8 | x8 | x8 | x8 | x8 | %96
 x8 | x8 | x8 | x8 | x8 | x8 | x8 | x8 | x8 | x8 | x8 | x8 | x8 | x8 | x8 | x8 | x8 | x8 | x8 | %115
 x8 | x8 | x8 | x8 | x8 | x8 | x8 | x8 | x8 | x8 | x8 | x8 | x8 | x8 | x8 | x8 | x8 | x8 | x8 | %134
 x8 | x8 | x8 | x8 | x8 | x8 | x8 | x8 | x8 | x8 | x8 | x8 | x8 | x8 | x8 | x8 | x8 | x8 | x8 | %153
 x8 | x8 | x8 | x8 | x8 | x8 | x8 | x8 | x8 | x8 | x8 | x8 | x8 | x8 | x8 | x8 | x8 | x8 | x8 | %172
 x8 | x8 | x8 | x8 | x8 | x8 | x8 | x8 | x8 | x8 | x8 | x8 | x8 | x8 | x8 | x8 | x8 | x8 | x8 | %191
 x8 |] %192

